Newaita/actions/22/code-function.svg

<?xml version="1.0" encoding="UTF-8"?>
<svg xmlns="http://www.w3.org/2000/svg" xmlns:xlink="http://www.w3.org/1999/xlink" width="22pt" height="22pt" viewBox="0 0 22 22" version="1.1">
<g id="surface1">
<path style=" stroke:none;fill-rule:nonzero;fill:rgb(25.882354%,25.882354%,25.882354%);fill-opacity:1;" d="M 13.1875 6.539062 L 19.554688 6.539062 C 20.308594 6.539062 20.921875 7.148438 20.921875 7.902344 L 20.921875 14.269531 C 20.921875 15.023438 20.308594 15.636719 19.554688 15.636719 L 13.1875 15.636719 C 12.4375 15.636719 11.824219 15.023438 11.824219 14.269531 L 11.824219 7.902344 C 11.824219 7.148438 12.4375 6.539062 13.1875 6.539062 Z M 13.1875 6.539062 "/>
<path style=" stroke:none;fill-rule:nonzero;fill:rgb(47.058824%,56.470591%,61.176473%);fill-opacity:1;" d="M 4.320312 4.265625 L 9.324219 4.265625 C 9.699219 4.265625 10.003906 4.546875 10.003906 4.890625 L 10.003906 5.003906 C 10.003906 5.347656 9.699219 5.628906 9.324219 5.628906 L 4.320312 5.628906 C 3.945312 5.628906 3.636719 5.347656 3.636719 5.003906 L 3.636719 4.890625 C 3.636719 4.546875 3.945312 4.265625 4.320312 4.265625 Z M 4.320312 4.265625 "/>
<path style=" stroke:none;fill-rule:nonzero;fill:rgb(47.058824%,56.470591%,61.176473%);fill-opacity:1;" d="M 2.5 12.453125 L 8.414062 12.453125 C 8.789062 12.453125 9.097656 12.757812 9.097656 13.132812 C 9.097656 13.511719 8.789062 13.816406 8.414062 13.816406 L 2.5 13.816406 C 2.125 13.816406 1.820312 13.511719 1.820312 13.132812 C 1.820312 12.757812 2.125 12.453125 2.5 12.453125 Z M 2.5 12.453125 "/>
<path style=" stroke:none;fill-rule:nonzero;fill:rgb(47.058824%,56.470591%,61.176473%);fill-opacity:1;" d="M 6.140625 16.542969 L 9.324219 16.542969 C 9.699219 16.542969 10.003906 16.851562 10.003906 17.226562 C 10.003906 17.601562 9.699219 17.910156 9.324219 17.910156 L 6.140625 17.910156 C 5.761719 17.910156 5.457031 17.601562 5.457031 17.226562 C 5.457031 16.851562 5.761719 16.542969 6.140625 16.542969 Z M 6.140625 16.542969 "/>
<path style=" stroke:none;fill-rule:nonzero;fill:rgb(47.058824%,56.470591%,61.176473%);fill-opacity:1;" d="M 3.410156 8.359375 L 7.503906 8.359375 C 7.882812 8.359375 8.1875 8.664062 8.1875 9.039062 C 8.1875 9.417969 7.882812 9.722656 7.503906 9.722656 L 3.410156 9.722656 C 3.035156 9.722656 2.730469 9.417969 2.730469 9.039062 C 2.730469 8.664062 3.035156 8.359375 3.410156 8.359375 Z M 3.410156 8.359375 "/>
</g>
</svg>

<svg xmlns="http://www.w3.org/2000/svg" width="22pt" height="22pt" viewBox="0 0 22 22"><path d="M13.188 6.54h6.367c.754 0 1.367.608 1.367 1.362v6.368c0 .753-.613 1.367-1.367 1.367h-6.367c-.75 0-1.364-.614-1.364-1.367V7.902c0-.754.614-1.363 1.364-1.363zm0 0" fill="#424242"/><path d="M4.32 4.266h5.004c.375 0 .68.28.68.625v.113c0 .344-.305.625-.68.625H4.32c-.375 0-.683-.281-.683-.625V4.89c0-.344.308-.625.683-.625zm0 0M2.5 12.453h5.914c.375 0 .684.305.684.68a.684.684 0 0 1-.684.683H2.5a.681.681 0 0 1 0-1.363zm0 0M6.14 16.543h3.184a.684.684 0 0 1 0 1.367H6.141a.684.684 0 0 1 0-1.367zm0 0M3.41 8.36h4.094a.681.681 0 1 1 0 1.363H3.41a.681.681 0 0 1 0-1.364zm0 0" fill="#78909c"/></svg>
